svgs/mux.svg

<?xml version="1.0" encoding="UTF-8"?>
<svg width="174" height="184" xmlns="http://www.w3.org/2000/svg" xmlns:s="https://github.com/nturley/netlistsvg">
<style>svg {
    stroke:#000;
    fill:none;
  }
  text {
    fill:#000;
    stroke:none;
    font-size:10px;
    font-weight: bold;
    font-family: "Courier New", monospace;
  }
  .nodelabel {
    text-anchor: middle;
  }
  .inputPortLabel {
    text-anchor: end;
  }
  .splitjoinBody {
    fill:#000;
  }</style>
<g transform="translate(77,22)" s:height="40" s:type="mux" s:width="20">
<s:alias val="$pmux"/>
<s:alias val="$mux"/>
<s:alias val="$_MUX_"/>
<path class="cell_$abc$115$auto$blifparse.cc:396:parse_blif$116" d="m0 0 20 10v20l-20 10z"/>
</g>
<g transform="translate(12,152)" s:height="20" s:type="inputExt" s:width="30">
<text class="nodelabel cell_s" x="15" y="-4" s:attribute="ref">s</text>
<s:alias val="$_inputExt_"/>
<path class="cell_s" d="m0 0v20h15l15-10-15-10z"/>
</g>
<g transform="translate(12,22)" s:height="20" s:type="inputExt" s:width="30">
<text class="nodelabel cell_a" x="15" y="-4" s:attribute="ref">a</text>
<s:alias val="$_inputExt_"/>
<path class="cell_a" d="m0 0v20h15l15-10-15-10z"/>
</g>
<g transform="translate(12,87)" s:height="20" s:type="inputExt" s:width="30">
<text class="nodelabel cell_b" x="15" y="-4" s:attribute="ref">b</text>
<s:alias val="$_inputExt_"/>
<path class="cell_b" d="m0 0v20h15l15-10-15-10z"/>
</g>
<g transform="translate(132,32)" s:height="20" s:type="outputExt" s:width="30">
<text class="nodelabel cell_z" x="15" y="-4" s:attribute="ref">z</text>
<s:alias val="$_outputExt_"/>
<path class="cell_z" d="m30 0v20h-15l-15-10 15-10z"/>
</g>
<line class="net_3" x1="40" x2="77" y1="32" y2="32"/>
<line class="net_4" x1="40" x2="52" y1="97" y2="97"/>
<line class="net_4" x1="52" x2="52" y1="97" y2="52"/>
<line class="net_4" x1="52" x2="77" y1="52" y2="52"/>
<line class="net_2" x1="40" x2="87" y1="162" y2="162"/>
<line class="net_2" x1="87" x2="87" y1="162" y2="57"/>
<line class="net_5" x1="97" x2="132" y1="42" y2="42"/>
</svg>

<svg xmlns="http://www.w3.org/2000/svg" xmlns:xlink="http://www.w3.org/1999/xlink" xmlns:s="https://github.com/nturley/netlistsvg" width="174" height="184">
  <style>svg {
    stroke:#000;
    fill:none;
  }
  text {
    fill:#000;
    stroke:none;
    font-size:10px;
    font-weight: bold;
    font-family: "Courier New", monospace;
  }
  .nodelabel {
    text-anchor: middle;
  }
  .inputPortLabel {
    text-anchor: end;
  }
  .splitjoinBody {
    fill:#000;
  }</style>
  <g s:type="mux" transform="translate(77,22)" s:width="20" s:height="40" id="cell_$abc$107$auto$blifparse.cc:396:parse_blif$108">
    <s:alias val="$pmux"/>
    <s:alias val="$mux"/>
    <s:alias val="$_MUX_"/>
    <path d="M0,0 L20,10 L20,30 L0,40 Z" class="cell_$abc$107$auto$blifparse.cc:396:parse_blif$108"/>
    <g s:x="0" s:y="10" s:pid="A"/>
    <g s:x="0" s:y="30" s:pid="B"/>
    <g s:x="10" s:y="35" s:pid="S"/>
    <g s:x="20" s:y="20" s:pid="Y"/>
  </g>
  <g s:type="inputExt" transform="translate(12,152)" s:width="30" s:height="20" id="cell_s">
    <text x="15" y="-4" class="nodelabel cell_s" s:attribute="ref">s</text>
    <s:alias val="$_inputExt_"/>
    <path d="M0,0 L0,20 L15,20 L30,10 L15,0 Z" class="cell_s"/>
    <g s:x="28" s:y="10" s:pid="Y"/>
  </g>
  <g s:type="inputExt" transform="translate(12,22)" s:width="30" s:height="20" id="cell_a">
    <text x="15" y="-4" class="nodelabel cell_a" s:attribute="ref">a</text>
    <s:alias val="$_inputExt_"/>
    <path d="M0,0 L0,20 L15,20 L30,10 L15,0 Z" class="cell_a"/>
    <g s:x="28" s:y="10" s:pid="Y"/>
  </g>
  <g s:type="inputExt" transform="translate(12,87)" s:width="30" s:height="20" id="cell_b">
    <text x="15" y="-4" class="nodelabel cell_b" s:attribute="ref">b</text>
    <s:alias val="$_inputExt_"/>
    <path d="M0,0 L0,20 L15,20 L30,10 L15,0 Z" class="cell_b"/>
    <g s:x="28" s:y="10" s:pid="Y"/>
  </g>
  <g s:type="outputExt" transform="translate(132,32)" s:width="30" s:height="20" id="cell_z">
    <text x="15" y="-4" class="nodelabel cell_z" s:attribute="ref">z</text>
    <s:alias val="$_outputExt_"/>
    <path d="M30,0 L30,20 L15,20 L0,10 L15,0 Z" class="cell_z"/>
    <g s:x="0" s:y="10" s:pid="A"/>
  </g>
  <line x1="40" x2="77" y1="32" y2="32" class="net_3"/>
  <line x1="40" x2="52" y1="97" y2="97" class="net_4"/>
  <line x1="52" x2="52" y1="97" y2="52" class="net_4"/>
  <line x1="52" x2="77" y1="52" y2="52" class="net_4"/>
  <line x1="40" x2="87" y1="162" y2="162" class="net_2"/>
  <line x1="87" x2="87" y1="162" y2="57" class="net_2"/>
  <line x1="97" x2="132" y1="42" y2="42" class="net_5"/>
</svg>
